remix/Weather/haze-2-line.svg

<svg viewBox="0 0 24 24" fill="currentColor" xmlns="http://www.w3.org/2000/svg"><path d="M12 19C12.8284 19 13.5 19.6716 13.5 20.5C13.5 21.3284 12.8284 22 12 22C11.1716 22 10.5 21.3284 10.5 20.5C10.5 19.6716 11.1716 19 12 19ZM19.5 19C20.3284 19 21 19.6716 21 20.5C21 21.3284 20.3284 22 19.5 22C18.6716 22 18 21.3284 18 20.5C18 19.6716 18.6716 19 19.5 19ZM4.5 19C5.32843 19 6 19.6716 6 20.5C6 21.3284 5.32843 22 4.5 22C3.67157 22 3 21.3284 3 20.5C3 19.6716 3.67157 19 4.5 19ZM17 7C19.7614 7 22 9.23858 22 12C22 14.7614 19.7614 17 17 17C15.1564 17 13.4896 15.9595 11.9997 13.8785C10.5104 15.9595 8.84364 17 7 17C4.23858 17 2 14.7614 2 12C2 9.23858 4.23858 7 7 7C8.84364 7 10.5104 8.04052 12.0003 10.1215C13.4896 8.04052 15.1564 7 17 7ZM7 9C5.34315 9 4 10.3431 4 12C4 13.6569 5.34315 15 7 15C8.25368 15 9.50923 14.1248 10.7587 12.1459L10.848 11.999L10.7587 11.8541C9.56129 9.95762 8.3583 9.07485 7.15672 9.00457L7 9ZM17 9C15.7463 9 14.4908 9.87517 13.2413 11.8541L13.151 12L13.2413 12.1459C14.4387 14.0424 15.6417 14.9252 16.8433 14.9954L17 15C18.6569 15 20 13.6569 20 12C20 10.3431 18.6569 9 17 9ZM12 2C12.8284 2 13.5 2.67157 13.5 3.5C13.5 4.32843 12.8284 5 12 5C11.1716 5 10.5 4.32843 10.5 3.5C10.5 2.67157 11.1716 2 12 2ZM4.5 2C5.32843 2 6 2.67157 6 3.5C6 4.32843 5.32843 5 4.5 5C3.67157 5 3 4.32843 3 3.5C3 2.67157 3.67157 2 4.5 2ZM19.5 2C20.3284 2 21 2.67157 21 3.5C21 4.32843 20.3284 5 19.5 5C18.6716 5 18 4.32843 18 3.5C18 2.67157 18.6716 2 19.5 2Z"/></svg>

<svg viewBox="0 0 24 24" xmlns="http://www.w3.org/2000/svg"><path fill="none" d="M0 0h24v24H0Z"/><path d="M12 19v0c.82 0 1.5.67 1.5 1.5 0 .82-.68 1.5-1.5 1.5v0c-.83 0-1.5-.68-1.5-1.5 0-.83.67-1.5 1.5-1.5Zm7.5 0v0c.82 0 1.5.67 1.5 1.5 0 .82-.68 1.5-1.5 1.5v0c-.83 0-1.5-.68-1.5-1.5 0-.83.67-1.5 1.5-1.5Zm-15 0v0c.82 0 1.5.67 1.5 1.5 0 .82-.68 1.5-1.5 1.5v0c-.83 0-1.5-.68-1.5-1.5 0-.83.67-1.5 1.5-1.5ZM17 7v0c2.76 0 5 2.23 5 5 0 2.76-2.24 5-5 5 -1.85 0-3.51-1.04-5-3.122C10.51 15.958 8.84 17 7 17v0c-2.77 0-5-2.24-5-5 0-2.77 2.23-5 5-5 1.84 0 3.51 1.04 5 3.122C13.49 8.032 15.15 7 17 7ZM7 9v0c-1.66 0-3 1.34-3 3 0 1.65 1.34 3 3 3 1.25 0 2.51-.875 3.75-2.86l.08-.15 -.09-.15c-1.2-1.9-2.4-2.78-3.601-2.85l-.16-.01Zm10 0c-1.26 0-2.51.875-3.76 2.85l-.09.14 .09.14c1.19 1.89 2.4 2.78 3.6 2.85l.15 0v0c1.65 0 3-1.35 3-3 0-1.66-1.35-3-3-3Zm-5-7v0c.82 0 1.5.67 1.5 1.5 0 .82-.68 1.5-1.5 1.5v0c-.83 0-1.5-.68-1.5-1.5 0-.83.67-1.5 1.5-1.5ZM4.5 2v0C5.32 2 6 2.67 6 3.5 6 4.32 5.32 5 4.5 5v0C3.67 5 3 4.32 3 3.5 3 2.67 3.67 2 4.5 2Zm15 0v0c.82 0 1.5.67 1.5 1.5 0 .82-.68 1.5-1.5 1.5v0c-.83 0-1.5-.68-1.5-1.5 0-.83.67-1.5 1.5-1.5Z"/></svg>
